X: 40
T:Tokyo Dontaku
O:Japan
L:1/8
M:2/4
K:CPhr
Q:1/4=120
C2 FE|F2G2|FEC2 |C4|\
B2FF |B2cB|F2d2 |c4|
B2cB |c2d2|cB^F2|F4|\
F2CC |F2G2|FEC2 |C4|
